lib/functional/design/bounding-box.svg

<svg xmlns="http://www.w3.org/2000/svg" fill="none" stroke="currentColor" aria-hidden="true" viewBox="0 0 32 32"><g id="Icon-BoundingBox"><g clip-path="url(#clip0_8_1624)"><g id="size=md (32px)"><g id="BoundingBox"><path id="Vector" stroke-linecap="round" stroke-linejoin="round" stroke-width="2" d="M26 5H22C21.4477 5 21 5.44772 21 6V10C21 10.5523 21.4477 11 22 11H26C26.5523 11 27 10.5523 27 10V6C27 5.44772 26.5523 5 26 5Z"/><path id="Vector_2" stroke-linecap="round" stroke-linejoin="round" stroke-width="2" d="M10 5H6C5.44772 5 5 5.44772 5 6V10C5 10.5523 5.44772 11 6 11H10C10.5523 11 11 10.5523 11 10V6C11 5.44772 10.5523 5 10 5Z"/><path id="Vector_3" stroke-linecap="round" stroke-linejoin="round" stroke-width="2" d="M26 21H22C21.4477 21 21 21.4477 21 22V26C21 26.5523 21.4477 27 22 27H26C26.5523 27 27 26.5523 27 26V22C27 21.4477 26.5523 21 26 21Z"/><path id="Vector_4" stroke-linecap="round" stroke-linejoin="round" stroke-width="2" d="M10 21H6C5.44772 21 5 21.4477 5 22V26C5 26.5523 5.44772 27 6 27H10C10.5523 27 11 26.5523 11 26V22C11 21.4477 10.5523 21 10 21Z"/><path id="Vector_5" stroke-linecap="round" stroke-linejoin="round" stroke-width="2" d="M8 21V11"/><path id="Vector_6" stroke-linecap="round" stroke-linejoin="round" stroke-width="2" d="M21 24H11"/><path id="Vector_7" stroke-linecap="round" stroke-linejoin="round" stroke-width="2" d="M24 11V21"/><path id="Vector_8" stroke-linecap="round" stroke-linejoin="round" stroke-width="2" d="M11 8H21"/></g></g></g></g><defs><clipPath id="clip0_8_1624"><rect width="32" height="32" fill="white" rx="5"/></clipPath></defs></svg>

<svg xmlns="http://www.w3.org/2000/svg" fill="none" stroke="currentColor" aria-hidden="true" viewBox="0 0 32 32"><g stroke="#101828" stroke-linecap="round" stroke-linejoin="round" stroke-width="2" clip-path="url(#a)"><path d="M26 5h-4a1 1 0 0 0-1 1v4a1 1 0 0 0 1 1h4a1 1 0 0 0 1-1V6a1 1 0 0 0-1-1ZM10 5H6a1 1 0 0 0-1 1v4a1 1 0 0 0 1 1h4a1 1 0 0 0 1-1V6a1 1 0 0 0-1-1Zm16 16h-4a1 1 0 0 0-1 1v4a1 1 0 0 0 1 1h4a1 1 0 0 0 1-1v-4a1 1 0 0 0-1-1Zm-16 0H6a1 1 0 0 0-1 1v4a1 1 0 0 0 1 1h4a1 1 0 0 0 1-1v-4a1 1 0 0 0-1-1Zm-2 0V11m13 13H11m13-13v10M11 8h10"/></g><defs><clipPath id="a"><rect width="32" height="32" fill="#fff" rx="5"/></clipPath></defs></svg>
